X:2429
L:1/16
M:2/4
K:E
 b2ge fefg | b2ge f2>f2 | ffgf e2c2 | ee2e e2e2 | b2ge fefg | b2ge f2eg | agaf ecBc |1 AA2B A4 :|2 
[M:2/8] A2>A2 ||[K:A][M:2/4] A,2A2 c2>B2 | cB (3cBA F2A2 | BABA c2B2 |[M:2/8] A2FE | 
[M:2/4] A,2A2 c2>A2 | cB (3cBA F2A2 | BABA c2B2 |1[M:2/8] A2>A2 :|2[M:2/4] A8 ||

